X:124
T:What Thadgh Said to Biddy
B:Terry "Cuz" Teahan "Sliabh Luachra on Parade" 1980
Z:Patrick Cavanagh
M:2/4
L:1/8
R:Polka
K:D
B | AF ED | FA FA | GB/G/ FG | E2 cB | 
AF ED | FA FA | GE/G/ FE | D3 :| 
E | FA AB | A3 F | GA Bc | BA FE | 
FA AB | A2 Af | fe ed | e3 E | 
FA AB | A3 F | GA Bc | d2 c>B | 
AF ED | FA FA | GE/G/ FE | D3 || 

